X:1
T:Title
%%score { ( 1 3 ) | ( 2 4 ) }
L:1/8
M:3/4
K:Eb
V:1 treble nm="Grand Piano"
V:3 treble 
V:2 bass 
V:4 bass 
V:1
 z2 z[Q:1/4=86] [CE] [=B,F][B,D] | [CE]3 [EA] _dA | c3 [EGc] [_DGB][CEA] | %3
 [B,EG]3 [CDA] [B,DG][A,DF] |[M:3/8] [G,E]3 | [CE][=B,F][B,D] |[M:3/4] E3 A _dA | c3 A GF | %8
[M:13/16] E/-E/-E-<EcB3/2[CA] |[M:3/8] [CA]3 | eee |[M:3/4] e6- | e4 z2 | c6- |[M:3/8] c3 | %15
 [CE][=B,F][B,D] |[M:3/4] E3 A _dA | c3 A GF |[M:13/16] E/-E/-E-<EcB3/2[CA] |[M:3/8] [CA]3 |] %20
V:2
 z2 z [A,,A,] [A,,A,][A,,A,] | [A,,A,]3 [C,A,] [F,A,_D][=E,A,=D] | [E,A,E]3 E, E,E, | %3
 E,3 B,, B,,B,, |[M:3/8] E,3 | [A,,A,][A,,A,][A,,A,] |[M:3/4] [A,C]3 [_G,A,E] [F,A,_D][=E,A,=D] | %7
 [E,A,E]3 [E,CE] [E,B,_D][D,A,=B,] | %8
[M:13/16] [E,A,C]/-[E,A,C]/-[E,A,C]-<[E,A,C][E,A,E][E,G,_D]3/2[A,,E,] |[M:3/8] [A,,E,]3 | EEE | %11
[M:3/4] E6- | E4 z2 | C6- |[M:3/8] C3 | [A,,A,][A,,A,][A,,A,] | %16
[M:3/4] [A,C]3 [_G,A,E] [F,A,_D][=E,A,=D] | [E,A,E]3 [E,CE] [E,B,_D][_D,A,=B,] | %18
[M:13/16] [E,A,C]/-[E,A,C]/-[E,A,C]-<[E,A,C][E,A,E][E,G,_D]3/2[A,,E,] |[M:3/8] [A,,E,]3 |] %20
V:3
 x6 | x6 | x6 | x6 |[M:3/8] x3 | x3 |[M:3/4] x6 | x6 |[M:13/16] x13/2 |[M:3/8] x3 | x3 | %11
[M:3/4] z2 z G/G/ AB | A3 c cc | z2 z =E/E/ FG |[M:3/8] F3 | x3 |[M:3/4] x6 | x6 |[M:13/16] x13/2 | %19
[M:3/8] x3 |] %20
V:4
 x6 | x6 | x6 | x6 |[M:3/8] x3 | x3 |[M:3/4] x6 | x6 |[M:13/16] x13/2 |[M:3/8] x3 | x3 | %11
[M:3/4] z2 z [E,B,]/[E,B,]/ [E,C][_D,_D] | [A,C]3 C CC | z2 z [C,G,]/[C,G,]/ [C,A,][C,B,] | %14
[M:3/8] [F,A,]3 | x3 |[M:3/4] x6 | x6 |[M:13/16] x13/2 |[M:3/8] x3 |] %20

